X: 19110
T: Irish Merrymaking
R: slip jig
M: 9/8
K: Dmajor
d2 d ded cBA|d2 d def gfe|d2 d ded cBA|BcB Bcd ecA:|
|:fag fed cBA|fag fed cde|fag fed cBA|BcB Bcd ecA:|

